X:1
T:Plin : Bernard Lasbleiz
Z:Roger Ngaret (Janvier 2001)
R:
C:Trad.
S:
A:Bretagne
K:C
T:Ton simpl
M:4/4
L:1/16
K:C
"Am"e4 d2e2 c2d2 e2c2 | e4 d2e2 c2d2 e4 ::
e4 d2c2 B2A2 A2G2 | "F"A4 G2A2 "D"F2G2 "Am"A4 :|
"D"d4 c2d2 "C"e2c2 "D"d2d2 | d4 c2d2 "C"e2c2 "D"d4 |
d4 c2d2 "C"e2c2 "D"d2d2 | d4 c2d2 "C"e2c2 "D"d2c2 |
"F"f4 e2f2 "C"g2a2 f2e2 | "D"d4 c2d2 "C"e2c2 "D"d2c2 |
"F"f4 e2f2 "C"g2a2 f2e2 | "D"d4 c2d2 "C"e2c2 "D"A4 |]
T:Ton doubl
"Am"A2e2 d2e2 c2d2 "G"B2c2 | "Am"A3B c2d2 e2c2 "G"B2c2 |
"Am"A2e2 d2e2 c2d2 "G"B2c2 | "Am"A3B c2d2 e2c2 "G"BcB2 ::
"Am"A4 B2c2 B2A2 "Em"B2BB | B2e2 d2e2 c2d2 B2c2 |
"Am"A4 B2c2 B2A2 "Em"B2e2 | d2e2 c2d2 B2c2 "Am"A4 :|
